X:1
T:Title
%%score 1 2
L:1/8
M:3/2
K:F
V:1 treble nm="Part_1"
V:2 bass nm="Part_2"
V:1
 F6 F2 G3 A |[M:2/2] B4 A2 A2 | G3 A B4 | A8 | z8 |[M:4/8] z4 |[M:6/2] A8 B4 c4 c4 c4 | B12 A12 | %8
w: A- do- ra- *|* mus te|hri- * *|te|||A- do- ra- mus te|hri- ste|
 z12 z12 | z12 z12 | z12 z12 |[M:2/2] z c/B/AA z B/A/GG | z A/G/F F2 GE F/E/ | %13
w: |||A- do- ra- mus A- doza- * mus|A- do- ra- mus te Chri- * *|
[M:4/2] F4 z2 c4 F2 G4 |[M:2/2] A2 A2 B4 | A4 z4 |[M:4/2] z8 c3 G BA/G/ A2 |[M:2/2] G4 z4 | %18
w: ste A- do- ra-|mus te Chri-|te|a- do- ra- mus te Chri-|ste|
 z4 z AcG | AA/A/ G2 FAdc | BA/A/ G2 F4 |[M:3/2] F4 ^F4 G4 |[M:2/2] ^G3 A A2 d2 | %23
w: St be- ne-|i- ci- mus ti- bi St be- ne-|i- ci- mus ti- bi|qui- a qui-|a per Tanc- tam|
[M:3/2] c4 =B4 c4 |[M:2/2] ^c2 c2 d2 B2 |[M:4/2] A G2 F G4 z G/G<GF/ A2 A2 | %26
w: Cru- cem et|Pas- si- o- nem|tu- * * am re- de- mi- sti mun- dum|
[M:2/2] z A/A<AG/ =B2 B2 |[M:3/2] c4 ^c6 c2 |[M:2/2] d3 A =B c2 B | c2 z c/B/ A/A/c/B/ A/A/d/c/ | %30
w: mi- se- re- re no- bis|mi- * se-|re- re no- * *|bis mise- * re- re mise- * re- re mise- *|
[M:3/2] Bd c2 Bd/c/ B3 A G2 |[M:2/2] F4 z4 | z8 | z4 c4 |[M:4/2] A2 AA Bc d4 cB c2 c2 | %35
w: re- re no- bis mise- * re- re no-|bis||O|Ta- crum con- vi- * * * * * vi-|
[M:2/2] B2 dc BBA>A | G2 GF EEcB | AAG>F F4 | z4 z Gc>B | AAG>G F4 |[M:3/2] z4 z2 B3 cd_e | %41
w: um in quo Chri- stus su- mi|ur in quo Chri- stus in quo|Chri- stus su- mi- tur|Re- co- li-|ur me- mo- ri\-a *|Pas- si- o- nis|
[M:4/2] d4 c2 c3 BAG F/E/D/E/F/G/A/=B/ |[M:5/2] ^c d2 c d4 =B3 =c A2 A2 G4 |[M:6/2] F8 z4 z12 | %44
w: e- ius Pas- si- o- nis e- * * * * * * *|* * * ius Pas- si- o- nis e-|ius|
 z12 F6 F2 G2 A2 | B6 B2 B4 A6 A2 B2 c2 |[M:3/2] d6 d2 c4 |[M:2/2] dcBA G/A/F/G<EE/ | %48
w: mens im- ple- tur|ra- ti- a mens im- ple- tur|gra- ti- a|et fu- tu- re glo- * * * * ri-|
[M:4/2] D4 A3 E ^FG G2 A4 |[M:4/8] c/c/B/B/A/A/G | F2 z2 | z2 d/d/c/c/ | B/B/A G2 | %53
w: e no- bis pi- gnus da- tur|Al- le- lu- ia Al- le- lu-|ia|Al- le- lu- ia|I- le- lu- ia|
 z A/A/G/G/F/F/ | ED z2 |[M:2/2] z G/4F/4E/4D/4E c/4B/4A/4G/4 AF G2 | %56
w: Al- le- lu- ia Al- le-|u- ia|Al- * * * * * * * * * le- lu-|
 F2 z d/4c/4B/4A/4 B _e/4d/4c/4B/4 cd |[M:7/2] c2 B2 c3 F G4 A16 |] %58
w: ia- * * * * * * * * * * le-|lu- ia Al- le- lu- ia|
V:2
 F,6 D,2 C,4 |[M:2/2] B,,C,D,E, F,F,,A,,B,, | C,D,E,F, G,G,,B,,C, | D,E,F,G, A,G,F,E, | %4
 D,3 C,/B,,/ A,,G,, A,,2 |[M:4/8] D,4 |[M:6/2] F,8 D,4 C,4 C,4 A,,4 | %7
 G,,6 A,,2 B,,2 G,,2 D,6 D,2 D,4 | G,,4 B,,4 F,,4 C,6 C,2 C,4 | F,6 E,2 F,2 D,2 C,6 B,,2 C,2 A,,2 | %10
 G,,6 G,,2 G,,4 D,4 C,8 |[M:2/2] F,,3 F,/E,/ D,2 _E, E,/D,/ | C,2 D,D,/C,/B,,B,, C,2 | %13
[M:4/2] F,,4 F,6 D,2 C,4 |[M:2/2] F,,2 F,,2 B,,4 | F,,2 F,3 C,_E,D,/C,/ | %16
[M:4/2] D,4 G,4 F,3 E, D,2 D,2 |[M:2/2] G,,2 C,3 G,,B,,A,,/G,,/ | A,,4 D,D,C,C, | %19
 F,F,/F,/ C,2 F,,F,,B,,A,, | B,,F,,/F,,/ C,2 F,,4 |[M:3/2] F,4 D,4 G,4 |[M:2/2] E,3 ^C, D,2 =B,,2 | %23
[M:3/2] A,,4 G,,4 C,4 |[M:2/2] A,,2 A,,2 D,2 G,2 |[M:4/2] D,4 G,,4 C,4 F,2 F,2 | %26
[M:2/2] D,4 G,,2 G,,2 |[M:3/2] C,3 B,, A,,6 A,,2 |[M:2/2] D,2 ^F,2 G,4 | %29
 C,3 A,,/G,,/F,,/F,,/A,,/G,,/F,,/F,,/B,,/A,,/ |[M:3/2] G,,B,, F,,2 B,,B,,/A,,/ G,,3 F,, C,2 | %31
[M:2/2] F,,F,F,F, B,,/C,/D,/E,/ F,F, | C,/D,/E,/F,/ G,G, D,/E,/F,/G,/ A,A, | D,>E,F,E,/D,/ C,4 | %34
[M:4/2] F,,4 G,,4 F,,8 |[M:2/2] B,,2 B,,A,,G,,G,,D,>D, | G,,4 C,4 | F,2 C,2 F,G,,B,,>A,, | %38
 G,,B,,F,,/G,,/A,,/B,,/ C,4 | F,,2 C,2 F,F,,B,,>A,, |[M:3/2] G,,F,, C,2 F,,2 B,,3 A,,B,,C, | %41
[M:4/2] G,,4 C,4 F,3 E, D,4 |[M:5/2] A,,4 D,4 G,3 E, F,2 F,2 C,4 | %43
[M:6/2] F,,6 F,,2 G,,2 A,,2 B,,6 B,,2 B,,4 | A,,6 A,,2 B,,2 C,2 D,6 D,2 E,2 F,2 | %45
 G,6 G,2 G,4 F,6 F,2 G,2 A,2 |[M:3/2] B,6 B,2 F,4 |[M:2/2] B,,A,,B,,F,,C,D, A,,2 | %48
[M:4/2] D,4 ^C,3 C,D,=B,, C,2 F,,4 |[M:4/8] F,/F,/G,/G,/F,/F,/C, | F,,F,/F,/E,/E,/D,/D,/ | %51
 C,/B,,/C,/A,,/B,,/B,,/A,,/A,,/ | G,,D,G,,C,/C,/ | B,,/B,,/F,,/F,,/C,/C,/D,/D,/ | %54
 A,,D,/D,/C,/C,/B,,/B,,/ |[M:2/2] G,,2 C,2 F,2 C,2 | F,,2 B,,2 B,, C,2 B,, | %57
[M:7/2] F,,2 B,,2 F,3 D, C,4 F,,16 |] %58

